X:1
T:Where Jesus Is, ’Tis Heaven
T:James Milton Black
T:Where Jesus Is, ’Tis Heaven
T:Public Domain
T:Public Domain
C:James Milton Black
Z:Public Domain
%%score ( 1 2 ) ( 3 4 )
L:1/8
M:3/4
K:Ab
V:1 treble 
V:2 treble 
V:3 bass 
V:4 bass 
V:1
 [CE][CA]>[DB] | [Ec]3 [CE] [DF][FA] | [FA]3 [FA] [EG][DF] | [CE]3 [Ec] [Ec]>[EA] | %4
w: 1.~Since Christ my|soul from sin set|free, This world has|been a Heav’n to|
w: 2.~Once Heav- en|seemed a far off|place, Till Je- sus|showed His smil- ing|
w: 3.~What mat- ters|where on earth we|dwell? On mount- ain|top, or in the|
 [EB]3 [DE] [CA]>[DB] | [Ec]3 [CE] [DF][FA] | [FA]3 [FA] [EG][DF] | [CE]3 [Ec] [DB]>[CA] | [CA]3 || %9
w: me; And ’mid earth’s|sor- rows and its|woe, ’Tis Heav’n my|Je- sus here to|know.|
w: face; Now it’s be-|gun with- in my|soul, ’Twill last while|end- less ag- es|roll.|
w: dell, In cot- tage,|or a man- sion|fair, Where Je- sus|is, ’tis Heav- en|there.|
"^Refrain" [CA][Fd]>[Fd] | [Fd]3 [Fd] [Ec]>[CA] | [Ec]3 [Ec] [Ec]>[Ec] | [Ae]3 [Ac] [Ac]A | %13
w: ||||
w: ||||
w: ||||
 [GB]3 [DE] [CA]>[DB] | [Ec]3 [CE] [DF][FA] | [FA]3 [FA] [EG][DF] | [CE]3 [Ec] [DB]>[CA] | [CA]3 |] %18
w: |||||
w: |||||
w: |||||
V:2
 x3 | x6 | x6 | x6 | x6 | x6 | x6 | x6 | x3 || x3 | x6 | x6 | x5 A | x6 | x6 | x6 | x6 | x3 |] %18
V:3
 [A,,A,][A,,A,]>[A,,A,] | [A,,A,]3 [A,,A,] [D,A,][D,D] | [D,D]3 [D,D] [D,A,][D,A,] | %3
w: ~ ~ ~|~ ~ ~ ~|~ ~ ~ ~|
 [A,,A,]3 [A,,A,] [A,,A,]>[C,A,] | [E,G,]3 [E,G,] [A,,A,]>[A,,A,] | [A,,A,]3 [A,,A,] [D,A,][D,D] | %6
w: ~ ~ ~ ~|~ ~ ~ ~|~ ~ ~ ~|
 [D,D]3 [D,D] [D,A,][D,A,] | [E,A,]3 [E,A,] [E,G,]>[A,,A,] | [A,,A,]3 || A,[D,A,]>[D,A,] | %10
w: ~ ~ ~ ~|~ ~ ~ ~|~|O hal- le-|
 [D,A,]3 [D,A,] [A,,A,]>[A,,A,] | [A,,A,]3 A, A,>A, | [A,C]3 [A,E] [A,E][A,C] | %13
w: jah, yes, ’tis Heav’n,|’Tis Heav’n to know|giv’n, On land or|
 [E,E]3 [E,G,] [A,,A,]>[A,,A,] | [A,,A,]3 [A,,A,] [D,A,][D,D] | [D,D]3 [D,D] [D,A,][D,A,] | %16
w: sea, what mat- ters|where? Where Je- sus|is, ’tis Heav- en|
 [E,A,]3 [E,A,] [E,G,]>[A,,A,] | [A,,A,]3 |] %18
w: there. * * *||
V:4
 x3 | x6 | x6 | x6 | x6 | x6 | x6 | x6 | x3 || A, x2 | x6 | x3 A, A,>A, | x6 | x6 | x6 | x6 | x6 | %17
w: |||||||||lu-||my sins for-||||||
 x3 |] %18
w: |

